icons/badge/add.svg

<svg width="32" height="32" viewBox="0 0 32 32" xmlns="http://www.w3.org/2000/svg">
    <path fill-rule="evenodd" d="M15 17v11h2V17h11v-2H17V4h-2v11H4v2h11z"/>
</svg>

<svg width="32" height="32" viewBox="0 0 32 32" fill="none" xmlns="http://www.w3.org/2000/svg">
<path fill-rule="evenodd" clip-rule="evenodd" d="M15 17V28H17V17H28V15H17V4.00003H15V15H4V17H15Z" fill="black"/>
</svg>
